icons/light/xml.svg

<svg width="16" height="16" viewBox="0 0 16 16" fill="none" xmlns="http://www.w3.org/2000/svg">
<path d="M8.59333 2L9.9 2.26667L7.40667 14L6.1 13.7333L8.59333 2ZM13.06 8L10.6667 5.60667V3.72L14.9467 8L10.6667 12.2733V10.3867L13.06 8ZM1.05333 8L5.33333 3.72V5.60667L2.94 8L5.33333 10.3867V12.2733L1.05333 8Z" fill="#424242"/>
</svg>

<svg xmlns="http://www.w3.org/2000/svg" width="16" height="16" fill="none" xmlns:v="https://vecta.io/nano"><path d="M8.593 2l1.307.267L7.407 14 6.1 13.733 8.593 2zm4.467 6l-2.393-2.393V3.72L14.947 8l-4.28 4.273v-1.887L13.06 8zM1.053 8l4.28-4.28v1.887L2.94 8l2.393 2.387v1.887L1.053 8z" fill="#424242"/></svg>
